public/new/svg25.svg

<svg fill="none" height="28" viewBox="0 0 28 28" width="28" xmlns="http://www.w3.org/2000/svg"><g fill="#77787e"><path d="m17.6465 18.3545 4 4 .708-.708-4-4z"/><path d="m12.5 21c-2.2543 0-4.41635-.8955-6.01041-2.4896s-2.48959-3.7561-2.48959-6.0104.89553-4.41635 2.48959-6.01041 3.75611-2.48959 6.01041-2.48959 4.4163.89553 6.0104 2.48959 2.4896 3.75611 2.4896 6.01041-.8955 4.4163-2.4896 6.0104-3.7561 2.4896-6.0104 2.4896zm0-1c1.9891 0 3.8968-.7902 5.3033-2.1967s2.1967-3.3142 2.1967-5.3033-.7902-3.89678-2.1967-5.3033-3.3142-2.1967-5.3033-2.1967-3.89678.79018-5.3033 2.1967-2.1967 3.3142-2.1967 5.3033.79018 3.8968 2.1967 5.3033 3.3142 2.1967 5.3033 2.1967z"/><path d="m9 13h7v-1h-7z"/><path d="m13 16v-7h-1v7z"/></g></svg>

<svg width="28" height="28" viewBox="0 0 28 28" fill="none" xmlns="http://www.w3.org/2000/svg">
<path d="M17.6465 18.3545L21.6465 22.3545L22.3545 21.6465L18.3545 17.6465L17.6465 18.3545Z" fill="#77787E"/>
<path d="M12.5 21C10.2457 21 8.08365 20.1045 6.48959 18.5104C4.89553 16.9163 4 14.7543 4 12.5C4 10.2457 4.89553 8.08365 6.48959 6.48959C8.08365 4.89553 10.2457 4 12.5 4C14.7543 4 16.9163 4.89553 18.5104 6.48959C20.1045 8.08365 21 10.2457 21 12.5C21 14.7543 20.1045 16.9163 18.5104 18.5104C16.9163 20.1045 14.7543 21 12.5 21ZM12.5 20C14.4891 20 16.3968 19.2098 17.8033 17.8033C19.2098 16.3968 20 14.4891 20 12.5C20 10.5109 19.2098 8.60322 17.8033 7.1967C16.3968 5.79018 14.4891 5 12.5 5C10.5109 5 8.60322 5.79018 7.1967 7.1967C5.79018 8.60322 5 10.5109 5 12.5C5 14.4891 5.79018 16.3968 7.1967 17.8033C8.60322 19.2098 10.5109 20 12.5 20Z" fill="#77787E"/>
<path d="M9 13H16V12H9V13Z" fill="#77787E"/>
<path d="M13 16V9H12V16H13Z" fill="#77787E"/>
</svg>
